X: 14042
T: Fraser's
R: jig
M: 6/8
K: Gdorian
|:GFG d3|dcd g2a|f2c dfd|cAF AGF|
GFG d3|dcd g2a|f2d cAF|1 ]G3 Gz D|2 ]G3 G2 d:|
g3 de^f|g^fg d2e|=f2c dfd|cAF Fzz|
g3 de^f|g^fg d2e|=fed cAF|G3 Gz d|
g^fg def|g^fg d2e|=f2c dfd|cAF AGF|
GFG dcd|gfg a2g|f2d cAF|G3 Gzz||

